X: 12
T:Jenny's Chickens
M:4/4
L:1/8
F:http://blackrosetheband.googlepages.com/ABCTUNES.ABC May 2009
S:Kevin Burke Live - Track 2
K:Bm
[c3f3] f f{fgf}ece|f2 fa eAce|f2 fa fece|fgaf eAce|
f2 fa fece|f2 f2 eAce|f2fa fece|fgaf eAce||"or"a2 ^ga eAce|
fBBA [F3B3] a|fBBB ABce|fBBA [F3B3] e|fgaf eAce|
fBBB [FB]BBB|fBBB eABe|fBBA [F3B3] e|fgaf eA(3cBA|
BB bB aB^gB|faaf eA (3cBA|BB bB aB^gB|f^gaf eA (3cBA|
BB bB aB^gB|faaf eA (3cBA|BB bB aB^gB|f^gaf eAce|

